X:63
T:Valzer
C:Riccardo Tesi
M:3/4
L:1/4
K:G
G B|d3|B c/B/ A/B/|c>d c-|cDD|c>d c-|cDD|B>dB-|BGB|
d3|B c/B/ A/B/|c>d c-|cDD|c>d c-|cEF|G>G G|G:|
K:C
|:GF|E3|E F/E/ D/E/|F>E D-|Ddc|1 B2G-|\
GBA|G2E-|E:|2 B2G|GA-A/B/|c2c|c2G||
|:A2B|c2d|ec-c/G/|1G2c|BA-A/D/-|D2B|AG-G/E/|\
EFG:|2G3|BA-A/E/|GF-F/B,/|C>CC-|C||
